src/assets/icons/copper-organ.svg

<?xml version="1.0" encoding="UTF-8"?>
<svg width="20px" height="20px" viewBox="0 0 20 20" version="1.1" xmlns="http://www.w3.org/2000/svg" xmlns:xlink="http://www.w3.org/1999/xlink">
    <title>编组 45</title>
    <g id="页面-1" stroke="none" stroke-width="1" fill="none" fill-rule="evenodd">
        <g id="画板" transform="translate(-341.000000, -314.000000)" fill="#FFFFFF">
            <g id="编组-45" transform="translate(341.000000, 314.000000)">
                <rect id="蒙版" fill-opacity="0" opacity="0" x="0" y="0" width="20" height="20"></rect>
                <path d="M18.3564246,16.7662651 L1.64357542,16.7662651 C1.28820112,16.7662651 1,17.042506 1,17.3831325 C1,17.723759 1.28820112,18 1.64357542,18 L18.3564246,18 C18.7117989,18 19,17.723759 19,17.3831325 C19,17.042506 18.7117989,16.7662651 18.3564246,16.7662651 Z M11.6089385,3.54216867 L11.6089385,16.7662651 L4.46927374,16.7662651 L4.46927374,3.54216867 C4.46927374,3.37214458 4.61367598,3.23373494 4.79106145,3.23373494 L11.2871508,3.23373494 C11.4645363,3.23373494 11.6089385,3.37214458 11.6089385,3.54216867 Z M11.2871508,2 L4.79106145,2 C3.90252514,2 3.18212291,2.69050602 3.18212291,3.54216867 L3.18212291,18 L12.8960894,18 L12.8960894,3.54216867 C12.8960894,2.69050602 12.1756872,2 11.2871508,2 Z M15.550838,8.76626506 L15.550838,16.7662651 L12.8960894,16.7662651 L12.8960894,8.45783133 L15.2290503,8.45783133 C15.4064358,8.45783133 15.550838,8.59624096 15.550838,8.76626506 Z M15.2290503,7.22409639 L11.6089385,7.22409639 L11.6089385,18 L16.8379888,18 L16.8379888,8.76626506 C16.8379888,7.91460241 16.1175866,7.22409639 15.2290503,7.22409639 Z M9.94469274,6.38554217 L6.13351955,6.38554217 C5.77814525,6.38554217 5.48994413,6.66178313 5.48994413,7.00240964 C5.48994413,7.34303614 5.77814525,7.61927711 6.13351955,7.61927711 L9.94469274,7.61927711 C10.300067,7.61927711 10.5882682,7.34303614 10.5882682,7.00240964 C10.5882682,6.66178313 10.300067,6.38554217 9.94469274,6.38554217 Z M9.94469274,9.19036145 L6.13351955,9.19036145 C5.77814525,9.19036145 5.48994413,9.46660241 5.48994413,9.80722892 C5.48994413,10.1478554 5.77814525,10.4240964 6.13351955,10.4240964 L9.94469274,10.4240964 C10.300067,10.4240964 10.5882682,10.1478554 10.5882682,9.80722892 C10.5882682,9.46660241 10.300067,9.19036145 9.94469274,9.19036145 Z M9.94469274,11.9951807 L6.13351955,11.9951807 C5.77814525,11.9951807 5.48994413,12.2714217 5.48994413,12.6120482 C5.48994413,12.9526747 5.77814525,13.2289157 6.13351955,13.2289157 L9.94469274,13.2289157 C10.300067,13.2289157 10.5882682,12.9526747 10.5882682,12.6120482 C10.5882682,12.2714217 10.300067,11.9951807 9.94469274,11.9951807 Z" id="形状" fill-rule="nonzero"></path>
            </g>
        </g>
    </g>
</svg>

<svg width="20" height="20" xmlns="http://www.w3.org/2000/svg"><path d="M18.356 16.766H1.644a.63.63 0 0 0-.644.617c0 .34.288.617.644.617h16.712a.63.63 0 0 0 .644-.617.63.63 0 0 0-.644-.617ZM11.61 3.542v13.224h-7.14V3.542c0-.17.145-.308.322-.308h6.496c.178 0 .322.138.322.308ZM11.287 2H4.791c-.888 0-1.609.69-1.609 1.542V18h9.714V3.542c0-.851-.72-1.542-1.609-1.542Zm4.264 6.766v8h-2.655V8.458h2.333c.177 0 .322.138.322.308Zm-.322-1.542h-3.62V18h5.229V8.766c0-.851-.72-1.542-1.609-1.542Zm-5.284-.838H6.134a.63.63 0 0 0-.644.616c0 .341.288.617.644.617h3.81a.63.63 0 0 0 .644-.617.63.63 0 0 0-.643-.616Zm0 2.804H6.134a.63.63 0 0 0-.644.617c0 .34.288.617.644.617h3.81a.63.63 0 0 0 .644-.617.63.63 0 0 0-.643-.617Zm0 2.805H6.134a.63.63 0 0 0-.644.617c0 .34.288.617.644.617h3.81a.63.63 0 0 0 .644-.617.63.63 0 0 0-.643-.617Z" fill-rule="nonzero" fill="#FFF"/></svg>
